X: 43624
T: Zakynthos, The
R: jig
M: 6/8
K: Aminor
|:aea gag|e2a a2g|ecc BcB|AFF FEF|
EAB cBA|FED cBA|BAB eBe|B2B cBA:|
|:EAB cBA|FED cBA|BAB eBe|B2B cBA|
EAB cBA|FED cBA|BAB eBe|1 B2B cBA:|2 B2B ABc||
|:d2 d2 c2|dc2 B2A|d2 d2 Bc|B3 ABc|
d2 d2 c2|fed cBA|d2 d2 cd|1 e3 efe:|2 e3 efg||

